X:563
T:Albany Beef
S:Bruce & Emmett's Drummers and Fifers Guide (1862), p. 56
M:2/4
L:1/16
Q:1/4=100
K:D
%%MIDI program 72
%%MIDI transpose 8
%%MIDI ratio 3 1
AF|D2DF ABAG|E2ef edBc|dedA Bdgb|afge fdAF|D2DF ABAG|
E2ef edBc|dedA Bdgb|afge d2::(3(ABc)|d2fd adfd|efga bgec|
d2fd adfd|egfd cABc|d2fd adfd|efga bgec|dedA Bdgb|afge d2:|

